icons/alert-error.svg

<!-- Generated by IcoMoon.io -->
<svg version="1.1" xmlns="http://www.w3.org/2000/svg" width="32" height="32" viewBox="0 0 32 32">
<path d="M16 0c-8.836 0-16 6.268-16 14 0 5.154 3.192 9.646 7.932 12.076v5.924l4.388-4.387c1.183 0.244 2.411 0.387 3.68 0.387 8.837 0 16-6.268 16-14s-7.163-14-16-14zM22.717 18.642l-2.121 2.121-4.596-4.597-4.596 4.596-2.121-2.121 4.597-4.596-4.597-4.597 2.121-2.121 4.596 4.597 4.597-4.596 2.121 2.121-4.597 4.596 4.596 4.597z"></path>
</svg>

<?xml version="1.0" encoding="utf-8"?>
<!-- Generator: Adobe Illustrator 16.0.0, SVG Export Plug-In . SVG Version: 6.00 Build 0)  -->
<!DOCTYPE svg PUBLIC "-//W3C//DTD SVG 1.1//EN" "http://www.w3.org/Graphics/SVG/1.1/DTD/svg11.dtd">
<svg version="1.1" id="Layer_1" xmlns="http://www.w3.org/2000/svg" xmlns:xlink="http://www.w3.org/1999/xlink" x="0px" y="0px"
	 width="32px" height="32px" viewBox="0 0 32 32" enable-background="new 0 0 32 32" xml:space="preserve">
<path d="M16,0C7.164,0,0,6.268,0,14c0,5.154,3.192,9.646,7.932,12.076V32l4.388-4.387C13.503,27.857,14.731,28,16,28
	c8.837,0,16-6.268,16-14C32,6.268,24.837,0,16,0z M22.717,18.642l-2.121,2.121L16,16.166l-4.596,4.596l-2.121-2.121l4.597-4.596
	L9.283,9.448l2.121-2.121L16,11.924l4.597-4.596l2.121,2.121l-4.597,4.596L22.717,18.642z"/>
</svg>
